public/ecosystem/qwik-london.svg

<svg fill="none" height="162" viewBox="0 0 158 162" width="158" xmlns="http://www.w3.org/2000/svg" xmlns:xlink="http://www.w3.org/1999/xlink"><linearGradient id="a" gradientUnits="userSpaceOnUse" x1="34.6235" x2="140.907" y1="17" y2="133.861"><stop offset="0" stop-color="#ac7ff4"/><stop offset="1" stop-color="#18b6f6"/></linearGradient><mask id="b" height="155" maskUnits="userSpaceOnUse" width="152" x="3" y="4"><path d="m78.6645 158.589c41.7885 0 75.6645-34.493 75.6645-77.0423 0-42.5495-33.876-77.04279-75.6645-77.04279-41.7883 0-75.6645 34.49329-75.6645 77.04279 0 42.5493 33.8762 77.0423 75.6645 77.0423z" fill="#fff"/></mask><ellipse cx="79" cy="81" fill="url(#a)" rx="79" ry="81"/><g mask="url(#b)"><path d="m159.676 4.38574h-162.02268v154.32226h162.02268z" fill="#fff"/><path d="m106.142 60.181 53.534-48.9299v-6.86536h-3.697l-61.0406 55.79526z" fill="#ba1d2c"/><path d="m103.609 106.017 56.067 51.216v-10.241l-44.864-40.975z" fill="#ba1d2c"/><path d="m-2.34668 16.1466 47.95378 44.0342h11.2073l-59.16108-54.29799z" fill="#ba1d2c"/><path d="m54.2811 106.017-56.62778 51.795v.895h10.22273l57.60835-52.69z" fill="#ba1d2c"/><g fill="#2e2a72"><path d="m148.593 4.38574h-56.7287v51.88256z"/><path d="m66.8078 4.38574h-56.4993l56.4993 51.88256z"/><path d="m159.676 60.1809v-35.4011l-38.482 35.4011z"/><path d="m159.676 141.03v-35.013h-38.482z"/><path d="m13.5146 158.708h53.2928v-48.774z"/><path d="m91.8643 158.708h53.4597l-53.4597-48.774z"/><path d="m-2.34668 106.017v36.59l39.82068-36.59z"/><path d="m-2.34668 60.1808h39.82068l-39.82068-36.6508z"/></g><path d="m71.8196 4.38574v64.96556h-74.16628v27.4995h74.16628v61.8572h15.0325v-61.8572h72.8239v-27.4995h-72.8239v-64.96556z" fill="#ba1d2c"/></g><path d="m141.734 38.1253-6.666-6.6284-.102.0145v-.0727l-14.176-13.9982 3.493-3.3723-2.052-11.77425-9.738 12.06495c-1.659 1.6716-1.964 4.3899-.771 6.3958l6.084 10.0881c.932 1.5553 2.62 2.4856 4.439 2.4711l3.013-.0291z" fill="#18b6f6"/><path d="m145.373 14.1262-1.339-2.4711-.698-1.2646-.277-.49427-.029.02907-3.668-6.35226c-.917-1.59896-2.634-2.587418-4.497-2.57288l-3.217.08721-9.592.02907c-1.819.01454-3.478.97392-4.395 2.52928l-5.837 11.57068 10.436-12.9516 13.682 15.0303-2.431 2.4566 1.456 11.7596.014-.029v.029h-.029l.029.0291 1.135 1.1048 5.517 5.3928c.233.2181.611-.0436.451-.3197l-3.406-6.7012 5.938-10.9747.19-.218c.072-.0873.145-.1745.203-.2617 1.165-1.5844 1.325-3.7067.364-5.4365z" fill="#ac7ef4"/><path d="m135.984 17.2369-13.725-14.9576 1.95 11.7161-3.493 3.3869 14.22 14.1145-1.28-11.7161z" fill="#fff"/></svg>

<svg width="158" height="162" viewBox="0 0 158 162" fill="none" xmlns="http://www.w3.org/2000/svg">
<ellipse cx="79" cy="81" rx="79" ry="81" fill="url(#paint0_linear_1829_2450)"/>
<mask id="mask0_1829_2450" style="mask-type:luminance" maskUnits="userSpaceOnUse" x="3" y="4" width="152" height="155">
<path d="M78.6645 158.589C120.453 158.589 154.329 124.096 154.329 81.5467C154.329 38.9972 120.453 4.50391 78.6645 4.50391C36.8762 4.50391 3 38.9972 3 81.5467C3 124.096 36.8762 158.589 78.6645 158.589Z" fill="white"/>
</mask>
<g mask="url(#mask0_1829_2450)">
<path d="M159.676 4.38574H-2.34668V158.708H159.676V4.38574Z" fill="white"/>
<path d="M106.142 60.181L159.676 11.2511V4.38574H155.979L94.9384 60.181H106.142Z" fill="#BA1D2C"/>
<path d="M103.609 106.017L159.676 157.233V146.992L114.812 106.017H103.609Z" fill="#BA1D2C"/>
<path d="M-2.34668 16.1466L45.6071 60.1808H56.8144L-2.34668 5.88281V16.1466Z" fill="#BA1D2C"/>
<path d="M54.2811 106.017L-2.34668 157.812V158.707H7.87605L65.4844 106.017H54.2811Z" fill="#BA1D2C"/>
<path d="M148.593 4.38574H91.8643V56.2683L148.593 4.38574Z" fill="#2E2A72"/>
<path d="M66.8078 4.38574H10.3085L66.8078 56.2683V4.38574Z" fill="#2E2A72"/>
<path d="M159.676 60.1809V24.7798L121.194 60.1809H159.676Z" fill="#2E2A72"/>
<path d="M159.676 141.03V106.017H121.194L159.676 141.03Z" fill="#2E2A72"/>
<path d="M13.5146 158.708H66.8074V109.934L13.5146 158.708Z" fill="#2E2A72"/>
<path d="M91.8643 158.708H145.324L91.8643 109.934V158.708Z" fill="#2E2A72"/>
<path d="M-2.34668 106.017V142.607L37.474 106.017H-2.34668Z" fill="#2E2A72"/>
<path d="M-2.34668 60.1808H37.474L-2.34668 23.53V60.1808Z" fill="#2E2A72"/>
<path d="M71.8196 4.38574V69.3513H-2.34668V96.8508H71.8196V158.708H86.8521V96.8508H159.676V69.3513H86.8521V4.38574H71.8196Z" fill="#BA1D2C"/>
</g>
<path d="M141.734 38.1253L135.068 31.4969L134.966 31.5114V31.4387L120.79 17.4405L124.283 14.0682L122.231 2.29395L112.493 14.3589C110.834 16.0305 110.529 18.7488 111.722 20.7547L117.806 30.8428C118.738 32.3981 120.426 33.3284 122.245 33.3139L125.258 33.2848L141.734 38.1253Z" fill="#18B6F6"/>
<path d="M145.373 14.1262L144.034 11.6551L143.336 10.3905L143.059 9.89623L143.03 9.9253L139.362 3.57304C138.445 1.97408 136.728 0.985622 134.865 1.00016L131.648 1.08737L122.056 1.11644C120.237 1.13098 118.578 2.09036 117.661 3.64572L111.824 15.2164L122.26 2.2648L135.942 17.2951L133.511 19.7517L134.967 31.5113L134.981 31.4823V31.5113H134.952L134.981 31.5404L136.116 32.6452L141.633 38.038C141.866 38.2561 142.244 37.9944 142.084 37.7183L138.678 31.0171L144.616 20.0424L144.806 19.8244C144.878 19.7371 144.951 19.6499 145.009 19.5627C146.174 17.9783 146.334 15.856 145.373 14.1262Z" fill="#AC7EF4"/>
<path d="M135.984 17.2369L122.259 2.2793L124.209 13.9954L120.716 17.3823L134.936 31.4968L133.656 19.7807L135.984 17.2369Z" fill="white"/>
<defs>
<linearGradient id="paint0_linear_1829_2450" x1="34.6235" y1="17" x2="140.907" y2="133.861" gradientUnits="userSpaceOnUse">
<stop stop-color="#AC7FF4"/>
<stop offset="1" stop-color="#18B6F6"/>
</linearGradient>
</defs>
</svg>
